!!!OTL: Zwei Koenigskinder. / (Schwebisch)
!!!ARE: Europa, Mitteleuropa, Deutschland
!!!TXL: @@SWE, @MGH
!!!SCT: A0026A
!!!YEM: Copyright 1995, estate of Helmut Schaffrath.
**kern	**text	**text
*M3/4	*	*
*met(3)	*	*
*k[b-e-]	*	*
*g:	*	*
!LO:TX:a:t=moll.	!	!
{4g	Det	Es
=1	=1	=1
4a	vo-	wa-
4b-/	-ra	-ren
4g	twå	ʒwei
=2	=2	=2
(<4a	äd-	ed-
4b-/)	.	.
4g	-le	-le
=3	=3	=3
(4a	ko-	Kö-
4b-/)	-nunga-	.
4cc	.	-nigs-
=4	=4	=4
2dd}	-barn,	-kind,
{4cc	de	die
=5	=5	=5
4b-	lof-	glob-
4a	-va	-ten
4b-/	hvar	ein-
=6	=6	=6
4g	a-	-an-
4a	-nan	-der
4b-/	ſin	die
=7	=7	=7
[2.a	tro;	Treu,
=8	=8	=8
4a]	.	.
4r}	.	.
{4dd	de	dort
=9	=9	=9
4dd	lof-	o-
4ee-	-va	-ben
4dd	hvar	auf
=10	=10	=10
4cc	a-	ho-
4b-	-nan	.
4a	på	-hem
=11	=11	=11
2.b-/	ſlot-	Schloſ-
=12	=12	=12
2a}	-tet,	-ſe,
{4a	ja	auf
=13	=13	=13
2g	up-	Schloſ-
4g	-på	-ſes
=14	=14	=14
4d	hö-	Ʒin-
4e	-gen	-nen
4f#	lofts	ſo
=15	=15	=15
[2.g	bro.	frei.
=16	=16	=16
4g]	.	.
4r}	.	.
==	==	==
!!!GTL: Balladen und Romanzen (erzählende Volkslieder)
!!!AGN: Romanze, Ballade, Lied
!! Svenska Folk - Visor, Stockholm 1814-16 No. 30
!!!ONB: ESAC (Essen Associative Code) Database: ALTDEU
!!!AMT: simple triple
!!!AIN: vox
!!!EED: Helmut Schaffrath
!!!EEV: 1.0
!!!RDF**kern: < = below
!!!URL-scan: https://rosdok.uni-rostock.de/mcrviewer/recordIdentifier/rosdok_ppn738218359/iview2/phys_0169.iview2?x=-2091.770685579196&y=212.30449172481894&scale=0.2411630558722919&rotation=0&layout=singlePageLayout&logicalDiv=log_0007
!!!ENC: Anna Maria Matuszewska
!!!EEV: 2024/19/02
*-	*-	*-
